X: 144
T:Danza do Galo
M:6/8
L:1/8
Q:220
C:Trad
R:Muiñeira
K:C
G>AG |: "tr."E>DC G>AG | "tr."F>ED  G>AG | "tr."F>ED G>AG | "tr."E>DC G>
AG |
"tr."E>DC G>AG| "tr."F>ED G>AG | B Z2 Z3 | Z>AG F>ED |1 {B,}C3 G>AG :|2
"segunda voz: una tercera abajo" {B,}C3 c3
|: B>cB A>BA | "tr."G2E G>AG | "tr."F2D A>BA | "tr."G2E c3|
B>cB A>BA | "tr."G2E G>AG | B Z2 Z3 | Z>AG F>ED |1 {B,}C3 c3 :|2 {B,}C3-
C>{G}EF |:
G2{c}G A2{c}A | G2{c}G A2{c}A |G2{c}G F>EF | G E2-E>{G}EF |
G2{c}G A2{c}A |G2{c}G A2{c}A |G2{c}G F>ED |1 {B,}C3- C>EF :|2 {B,}C3 ||

